vendor/shopware/storefront/Resources/app/storefront/dist/assets/icon/default/blocked.svg

<svg xmlns="http://www.w3.org/2000/svg" width="24" height="24" viewBox="0 0 24 24">
  <path fill="#758CA3" fill-rule="evenodd" d="M12,24 C5.372583,24 -8.8817842e-16,18.627417 -8.8817842e-16,12 C-8.8817842e-16,5.372583 5.372583,-8.8817842e-16 12,-8.8817842e-16 C18.627417,-8.8817842e-16 24,5.372583 24,12 C24,18.627417 18.627417,24 12,24 Z M12,22 C17.5228475,22 22,17.5228475 22,12 C22,6.4771525 17.5228475,2 12,2 C6.4771525,2 2,6.4771525 2,12 C2,17.5228475 6.4771525,22 12,22 Z M16.2928932,6.29289322 C16.6834175,5.90236893 17.3165825,5.90236893 17.7071068,6.29289322 C18.0976311,6.68341751 18.0976311,7.31658249 17.7071068,7.70710678 L7.70710678,17.7071068 C7.31658249,18.0976311 6.68341751,18.0976311 6.29289322,17.7071068 C5.90236893,17.3165825 5.90236893,16.6834175 6.29289322,16.2928932 L16.2928932,6.29289322 Z"/>
</svg>

<svg xmlns="http://www.w3.org/2000/svg" width="24" height="24" viewBox="0 0 24 24"><path fill="#758CA3" fill-rule="evenodd" d="M12 24C5.3726 24 0 18.6274 0 12S5.3726 0 12 0s12 5.3726 12 12-5.3726 12-12 12zm0-2c5.5228 0 10-4.4772 10-10S17.5228 2 12 2 2 6.4772 2 12s4.4772 10 10 10zm4.2929-15.7071c.3905-.3905 1.0237-.3905 1.4142 0 .3905.3905.3905 1.0237 0 1.4142l-10 10c-.3905.3905-1.0237.3905-1.4142 0-.3905-.3905-.3905-1.0237 0-1.4142l10-10z"/></svg>
